X: 28493
T: Munster Bacon
R: jig
M: 6/8
K: Dmajor
|:ABA DFA|dfe d2c|BAB dAF|GFG EFG|
~A3 d2c|BAB efg|faf ede|1 fdc d2B:|2 fdc dfg||
|:afd dfa|bge a2g|~f3 ged|cec ABG|
Fdd cee|dff efg|faf ede|1 fdc dfg:|2 fdc d2B||

